ui/StatusQ/src/assets/img/icons/active-members.svg

<svg fill="none" height="16" viewBox="0 0 16 16" width="16" xmlns="http://www.w3.org/2000/svg"><path clip-rule="evenodd" d="m6.46069 13.6656c-.03238.2914.3292.4518.52348.2321l5.61743-6.35008c.2572-.29079.0508-.74905-.3375-.74905h-3.16968c-.17901 0-.31829-.1556-.29852-.33352l.45896-4.1306c.03238-.29143-.32921-.4518-.52349-.23218l-5.6174 6.35011c-.25724.29079-.05079.74905.33745.74905h2.83412c.35804 0 .63658.31121.59704.66705z" fill="#000" fill-rule="evenodd"/></svg>

<svg width="16" height="16" viewBox="0 0 16 16" fill="none" xmlns="http://www.w3.org/2000/svg">
<path fill-rule="evenodd" clip-rule="evenodd" d="M6.46069 13.6656C6.42831 13.957 6.78989 14.1174 6.98417 13.8977L12.6016 7.54762C12.8588 7.25683 12.6524 6.79857 12.2641 6.79857H9.09442C8.91541 6.79857 8.77613 6.64297 8.7959 6.46505L9.25486 2.33445C9.28724 2.04302 8.92565 1.88265 8.73137 2.10227L3.11397 8.45238C2.85673 8.74317 3.06318 9.20143 3.45142 9.20143H6.28554C6.64358 9.20143 6.92212 9.51264 6.88258 9.86848L6.46069 13.6656Z" fill="black"/>
</svg>
